X:1
T:Peccavi super numerum
T:François de Layolle
T:Source : Trium vocum cantiones---Nürnberg---J.Petreius---1541. Editor : André Vierendeels (23/04/16).
T:Notes : Original clefs : C3, C4, F3 Editorial accidentals above the staff Original note values have been halved Square bracket indicates ligature  
T:Peccavi super numerum
T:©
T:©
T:©
T:©
T:©
T:©
T:©
C:François de Layolle
Z:©
%%score [ 1 2 3 ]
L:1/8
Q:1/4=96
M:2/2
K:C
V:1 treble-8 nm="Tenor 1" snm="T 1"
V:2 treble-8 nm="Tenor 2" snm="T 2"
V:3 treble-8 nm="Tenor 3" snm="T 3"
V:1
 e8 | e8 | e4 g4- | g2 f2 e2 d2 | c3 B/A/ B4- | B2 A2 A4 | c3 d B4 | ABcd ef g2- | g2 f2 g4 | %9
w: Pec-|ca-|vi, pec-|* ca- * *||* vi su-||per _ _ _ _ _ nu-|* me- rum|
 c4 c4 | d4 e4 | f8 | e8 | z4 d2 d2 | e2 f2 g2 g2 | f4 f4 | g4 f4 | e8 | d4 f4 | e2 g3 f e2- | %20
w: a- re-|* nae|ma-|ris,|et mul-|ti- pli- ca- ta|sunt pec-|ca- ta|me-|a, pec-|ca- ta _ _|
 e2 dc d4 | e4 g4 | a4 a4 | g2 c2 e2 f2 | g2 a4 g2 | a8 | z2 A2 A2 A2 | c3 d e4 | z2 d2 d2 d2 | %29
w: _ _ _ me-|a, pec-|ca- ta|me- * * *||a,|et non sum|di- * gnus,|et non sum|
 f2 e2 z4 | z4 e4 | f4 e4 | z4 d4- | d2 d2 g4- | g2 f2 e2 d2 | c3 B A4 | B8 | ABcd ef g2 | %38
w: di- gnus|vi-|de- re|al-|* ti- tu|_ di- nem coe-||li,|coe- * * * * * *|
 e2 a3 g/f/ g/f/e/d/ | c8 | z2 d2 f2 e2 | d2 f2 e4- | e8- | e4 z2 e2 | g2 g2 d4 | f4 z2 e2 | %46
w: |li,|prae mul- ti-|tu- di- ne|_|* in-|i- qui- ta-|tis, in-|
 f2 e4 dc | d2 c2 B4 | A2 G2 A2 a2- | a2 gf gfed | c8 | z4 a4- | a2 a2 f4 | g6 g2 | e4 z2 B2 | %55
w: i- qui- * *|ta- * *|* * tis me-||ae,|quo-|* ni- am,|quo- ni-|am ir-|
 c2 d2 B4 | ABcd ef g2- | g2 fe dc d2 | c3 B A2 G2 | F4 E4 | z2 e2 f2 e2 | c2 e4 d2 | e4 a4- | %63
w: ri- ta- vi|i- * * * * * ram|_ _ _ _ _ _|tu- * * *|* am,|i- ram tu-||am Do-|
 a2 g2 f4 | e8 | z2 d2 e2 e2 | e2 a4 g2 | f2 e2 z2 e2 | g2 e2 fe a2- |"^#" ag/f/ g2 c2 d2 | %70
w: * * mi-|ne,|et ma- lum|co- ram te|fe- ci, et|ma- lum co- * ram|_ _ _ te fe- ci,|
 z2 e2 f2 g2 | a4 g4 | z2 d2 f2 f2 | e2 g3 f/e/ f2- | fe e4 d2 | e4 z2 e2 | g2 e2 a4 | g8- | g8 |] %79
w: co- ram te|fe- ci,|et ma- lum|co- ram _ _ te|_ _ fe- *|ci, co-|ram te fe-|ci.|_|
V:2
 B8 | c8 | B8 | z8 | E8 | F8 | E8 | z4 c4 | A4 G4 | A3 G AB c2- | c2 B2 c4 | A4 d4- | d2 cB c4 | %13
w: Pec-|ca-|vi,||pec-|ca-|vi,|pec-|ca- vi|su- * * * *|* per nu-|me- *|* * * rum|
 d4 f4 | e2 d4 c2 | d8 | z8 | A2 A2 A2 A2 | B2 G2 d4 | z4 B4 | c2 B2 A4 | B4 c4- | c4 d4 | e6 d2 | %24
w: a- re-|nae ma- *|ris,||et mul- ti- pli-|ca- ta sunt|pec-|ca- ta me-|a, pec-|* ca-|ta me-|
 c3 B/A/ B4 | A4 z2 A2 | A2 A2 c3 d | e4 z2 B2 | B2 B2 d2 A2 | z4 e4 | f4 e4 | z4 A4 | A4 d4- | %33
w: |a, et|non sum di- *|gnus, et|non sum di- gnus|vi-|de- re|al-|ti- tu-|
 d2 c2 B2 A2 | G4 G4 | A2 c3 B A2- |"^#" A2 GF G4 | A6 B2 | c2 A2 c2 B2 | A2 c3 B A2- | A2 d4 c2 | %41
w: * di- nem coe-|li, al-|ti- tu- di- nem|_ _ _ _|coe- *||||
 d4 z4 | A4 c4- | c2 B2 c2 c2 | B4 z2 B2 | d2 d2 c4 | A4 z2 E2 | FE A4 G2 | c4 d4 | B8 | A4 e4- | %51
w: li,|prae mul-|* ti- tu- di-|ne in-|i- qui- ta-|tis, in-|i- * * qui-|ta- tis|me-|ae, quo|
 e2 e2 c4 | d6 d2 | G4 z2 G2 | A2 c3 B B2- | B2 A4 G2 | A4 G4 | G4 G4 | A4 A4 | A4 G4 | A4 c3 B | %61
w: _ ni- am,|quo- ni-|am ir-|ri- ta- * *||vi i-|ram tu-|am, i-|ram tu-|am, Do- *|
 A2 G2 F4 | E4 D4 | d8 | c2 A2 A2 A2 | B4 c3 B | AG F2 E4 | A2 c2 c2 c2 | B2 c4 BA | B4 A4- | %70
w: |mi- ne,|et|ma- lum co- ram|te fe- *|* * * ci,|et ma- lum co-|ram te _ _|fe- ci,|
 A4 z2 B2 | c2 d2 e4 | d4 z2 A2 | c4 A4 | z4 z2 A2 | B2 G2 c4 | B4 z2 A2 | B2 G2 c4 | B8 |] %79
w: _ co-|ram te fe-|ci, et|ma- lum|co-|ram te fe-|ci, co-|ram te fe-|ci.|
V:3
 E8 | A8 | E8 | G4 A4- | A4 G4 | z4 A4- |"^#" A2 GF G4 | A4 z4 | z8 | F8 | D4 C4 | D3 E F3 G | %12
w: Pec-|ca-|vi,|pec- ca-|* vi|pec-|* * * ca-|vi,||a-|re- nae|ma- * * *|
 A4 A4 |"^b""^b" B4 B3 A | G2 F2 E4 | D4 d4 | e3 d/c/ d2 d2- | d2 cB c4 |"^#" d4 D4 | E4 G4 | F8 | %21
w: * ris,|et mul- *|* ti- pli-|ca- ta|sunt _ _ _ pec-|* ca- ta me-|a, pec-|ca- ta|me-|
 E4 E4 | F4 F4 | E8 | E8 | z2 D2 D2 D2 | F3 G A4 | z2 E2 E2 E2 | G4 D4 | A2 cB cd e2- | ed d4 c2 | %31
w: a, pec-|ca- ta|me-|a,|et non sum|di- * gnus,|et non sum|di- gnus,|_ _ _ _ _ vi-|* * de- *|
 d4 z4 | D4 D2 D2 | G6 F2 | E2 D2 C2 B,2 | A,8 | E8 | z8 | z8 | F4 E2 F2- | F2 D2 A4 | D4 A4 | %42
w: re,|vi- de- re|al- ti-|tu- di- nem _|[coe-|li,]|||prae mul- ti-|* tu- di-|ne, prae|
 c6 B2 | A2 G2 A4 | z2 E2 G2 G2 | D4 A4 | z4 A,4 | D4 E4 | F2 E2 F4 | E8 | A,8 | A6 A2 | D4 z4 | %53
w: mul- ti-|tu- di- ne,|in- i- qui-|ta- tis,|in-|i- qui-|ta- * tis|me-|ae,|quo- ni-|am,|
 E6 E2 | A,2 A4 G2 | F4 E4 | z4 E4 | C4 B,4 | A,2 A2 c2 B2 | c2 A2 B4 | c3 B A2 G2 | F2 E2 A4 | %62
w: quo- ni-|am ir- ri-|ta- vi,|ir-|ri- ta-|vi ir- ri- ta-|vi i- ram|tu- * * *||
 G4 z4 | D3 E F3 G | A2 c2 c2 c2 | d4 A2 c2- | c2 d2 B4 | A8 | z8 | E4 F2 D2 | A4 A2 G2 | F4 E4 | %72
w: am|Do- mi- ne, _|_ et ma- lum|co- * ram|_ te fe-|ci,||et ma- lum|co- ram te|fe- ci,|
 G3 F D4 | C4 z2 D2 | E2 C2 F4 | E4 z2 A,2 | E2 E2 A,4 | E8- | E8 |] %79
w: et _ ma-|lum co-|ram te fe-|ci co-|ram te fe-|ci.|_|

